brandFactory_export/1.Light/Menu_1Light.svg

<?xml version="1.0" encoding="UTF-8"?>
<svg width="24px" height="24px" viewBox="0 0 24 24" version="1.1" xmlns="http://www.w3.org/2000/svg" xmlns:xlink="http://www.w3.org/1999/xlink">
    <title>1.Light/Menu_1Light</title>
    <g id="Symbols" stroke="none" stroke-width="1" fill="none" fill-rule="evenodd">
        <g id="1.Light/Menu_1Light" fill="#5CB615" fill-rule="nonzero">
            <path d="M0.695798319,4.39159664 C0.312605042,4.39159664 0,4.08571429 0,3.7092437 C0,3.33277311 0.312605042,3.02689076 0.695798319,3.02689076 L22.9310924,3.02689076 C23.3142857,3.02689076 23.6268908,3.33277311 23.6268908,3.7092437 C23.6268908,4.08571429 23.3142857,4.39159664 22.9310924,4.39159664 L0.695798319,4.39159664 Z M22.9277311,11.205042 C23.3109244,11.205042 23.6235294,11.5109244 23.6235294,11.887395 C23.6235294,12.2638655 23.3109244,12.5697479 22.9277311,12.5697479 L0.695798319,12.5697479 C0.312605042,12.5697479 0,12.2638655 0,11.887395 C0,11.5109244 0.312605042,11.205042 0.695798319,11.205042 L22.9277311,11.205042 L22.9277311,11.205042 Z M22.9277311,19.3831933 C23.3109244,19.3831933 23.6235294,19.6890756 23.6235294,20.0655462 C23.6235294,20.4420168 23.3109244,20.7478992 22.9277311,20.7478992 L0.695798319,20.7478992 C0.312605042,20.7478992 0,20.4420168 0,20.0655462 C0,19.6890756 0.312605042,19.3831933 0.695798319,19.3831933 L22.9277311,19.3831933 Z" id="Menu_1Light"></path>
        </g>
    </g>
</svg>

<svg width="24" height="24" viewBox="0 0 24 24" xmlns="http://www.w3.org/2000/svg"><path d="M.696 4.392A.69.69 0 010 3.709a.69.69 0 01.696-.682H22.93a.69.69 0 01.696.682.69.69 0 01-.696.683H.696zm22.232 6.813a.69.69 0 01.696.682.69.69 0 01-.696.683H.696A.69.69 0 010 11.887a.69.69 0 01.696-.682h22.232zm0 8.178a.69.69 0 01.696.683.69.69 0 01-.696.682H.696A.69.69 0 010 20.066a.69.69 0 01.696-.683h22.232z" fill="#5CB615" fill-rule="nonzero"/></svg>
